X:461
T:Miss Mcleod's
M:4/4
L:1/8
K:G
|:"G"G2 g2 edeg|B2 BA BcBA|G2 g2 edeg|"D"A2 AG AcBA|
"G"G2 g2 edeg|B2 BA B2 d2|"C"e2 ef edef|"D"gedB AcBA:|
"G"GABedBGA|B2 BA BcBA|GABedBGA|"D"A2 AG AcBA|
"G"GABc dBGA|B2 BA B2 d2|"C"e2 ef edeg|1 "D"gedB AcBA:|2 "D"gedB AcBA|]
